X:1
T:Heidelberg Stein Stong
T:Heidelberg Stein Stong
T:from the Prince of Pilsen
T:Gustav Luders
T:Frank Pixley
C:Gustav Luders
Z:Frank Pixley
%%score [ 1 2 3 4 ]
L:1/8
Q:1/4=60
M:3/4
K:Bb
V:1 treble-8 nm="Soprano"
V:2 treble-8 nm="Alto"
V:3 bass nm="Tenor"
V:4 bass nm="Bass"
V:1
 F2 | d3/2 d/ _d3 d | e3/2 e/ e3 e | d3 d =e3/2 e/ | e4 z e | e3/2 e/ e3 e | e3/2 d/ d3 d | %7
w: O|Hei- del- berg, dear|Hei- del- berg, thy|sons will ne'er for-|get, The|gold- en haze of|stu- dent days is|
 =e3 e e e | f4 z f | e3/2 d/ e3 f | e3/2 d/ d3 d | e3 d e g | ^f4 z f | =f3/2 f/ f3 f | %14
w: round a- bout us|yet. Those|days of yore will|come no more, while|through our man- ly|years, The|thought of you, so|
 =e3/2 e/ e3 e | f3 f _e3/2 d/ | d4 z e | d3/2 d/ d3 _a | _a3/2 g/ g3 f | =e3 e _e3/2 e/ | %20
w: good, so true, will|fill our eyes with|tears, The|thought of you, so|good, so true, will|fill our eyes with|
 (!fermata!d2 !fermata!b2) |] %21
w: tears. _|
V:2
 F2 | F3/2 B/ A3 G | G3/2 F/ F3 F | B3 B c3/2 G/ | c4 z F | F3/2 G/ A3 c | c3/2 B/ B3 B | %7
w: O|Hei- del- berg, dear|Hei- del- berg, thy|sons will ne'er for-|get, The|gold- en haze of|stu- dent days is|
 A3 G D =E | F4 z F | c3/2 =B/ c3 d | c3/2 _B/ F3 F | c3 =B c ^c | d4 z d | d3/2 G/ G3 d | %14
w: round a- bout us|yet. Those|days of yore will|come no more, while|through our man- ly|years, The|thought of you, so|
 d3/2 c/ c3 B | F3 d c3/2 B/ | B4 z F | F3/2 B/ B3 f | f3/2 e/ e3 d | c3 G A3/2 B/ | %20
w: good, so true, will|fill our eyes with|tears, The|thought of you, so|good, so true, will|fill our eyes with|
 (!fermata!B2 !fermata!f2) |] %21
w: tears. _|
V:3
 F,2 | F,3/2 F,/ =E,3 G, | A,3/2 A,/ A,3 A, | B,3 B, G,3/2 B,/ | A,4 z A, | A,3/2 B,/ C3 A, | %6
w: O|Hei- del- berg, dear|Hei- del- berg, thy|sons will ne'er for-|get, The|gold- en haze of|
 A,3/2 B,/ B,3 B, | B,3 B, B, B, | A,4 z A, | A,3/2 _A,/ =A,3 A, | F,3/2 F,/ B,3 B, | %11
w: stu- dent days is|round a- bout us|yet. Those|days of yore will|come no more, while|
 A,3 ^G, A, B, | (A,2 C2) z C | =B,3/2 B,/ B,3 B, | _B,3/2 B,/ B,3 ^C | D3 B, A,3/2 B,/ | B,4 z C | %17
w: through our man- ly|years, _ The|thought of you, so|good, so true, will|fill our eyes with|tears, The|
 B,3/2 F,/ F,3 D | D3/2 B,/ B,3 =B, | G,3 _B, C3/2 F,/ | (!fermata!F,2 !fermata!D2) |] %21
w: thought of you, so|good, so true, will|fill our eyes with|tears. _|
V:4
 F,2 | B,,3/2 B,,/ B,,3 B,, | C,3/2 C,/ F,3 F, | G,3 G, C,3/2 C,/ | F,4 z F, | F,3/2 F,/ F,3 ^F, | %6
w: O|Hei- del- berg, dear|Hei- del- berg, thy|sons will ne'er for-|get, The|gold- en haze of|
 ^F,3/2 G,/ G,3 G, | C,3 C, C, C, | F,4 z F, | F,3/2 F,/ F,3 F, | B,,3/2 B,,/ B,,3 B,, | %11
w: stu- dent days is|round a- bout us|yet. Those|days of yore will|come no more, while|
 F,3 F, F, E, | D,4 z D, | G,3/2 G,/ G,3 G, | C,3/2 C,/ C,3 G, | F,3 F, ^F,3/2 G,/ | %16
w: through our man- ly|years, The|thought of you, so|good, so true, will|fill our eyes with|
 [G,,G,]4 z B,, | B,,3/2 B,,/ B,3 B, | E,3/2 E,/ G,3 C, | C,3 C, F,3/2 B,,/ | %20
w: tears, The|thought of you, so|good, so true, will|fill our eyes with|
 (!fermata!B,,2 !fermata!B,2) |] %21
w: tears. _|

